static/img/icon-quickstart-code.svg

<svg fill="none" height="24" viewBox="0 0 24 24" width="24" xmlns="http://www.w3.org/2000/svg"><g fill="#33373d"><path d="m8 6.50003c0 .55229-.44771.99997-1 .99997s-1-.44768-1-.99997.44771-1.00003 1-1.00003 1 .44774 1 1.00003z"/><path d="m12.8458 10.7685c.4039.0916.6572.4933.5656.8973l-1.36 6c-.0915.4039-.4932.6572-.8972.5656-.404-.0915-.6572-.4932-.5656-.8972l1.3599-6c.0916-.404.4933-.6572.8973-.5657z"/><path d="m9.53033 13.0303c.29289-.2929.29289-.7677 0-1.0606s-.76777-.2929-1.06066 0l-2 2c-.29289.2929-.29289.7677 0 1.0606l2 2c.29289.2929.76777.2929 1.06066 0s.29289-.7677 0-1.0606l-1.46967-1.4697z"/><path d="m14.4697 13.0303c-.2929-.2929-.2929-.7677 0-1.0606s.7677-.2929 1.0606 0l2 2c.2929.2929.2929.7677 0 1.0606l-2 2c-.2929.2929-.7677.2929-1.0606 0s-.2929-.7677 0-1.0606l1.4696-1.4697z"/><path clip-rule="evenodd" d="m6.5 2.75c-2.07107 0-3.75 1.67893-3.75 3.75v11c0 2.0711 1.67893 3.75 3.75 3.75h11c2.0711 0 3.75-1.6789 3.75-3.75v-11c0-2.07107-1.6789-3.75-3.75-3.75zm-2.25 3.75c0-1.24264 1.00736-2.25 2.25-2.25h11c1.2426 0 2.25 1.00736 2.25 2.25v1.55c0 .11046-.0895.2-.2.2h-15.1c-.11046 0-.2-.08954-.2-.2zm15.3 3.25c.1105 0 .2.08954.2.2v7.55c0 1.2426-1.0074 2.25-2.25 2.25h-11c-1.24264 0-2.25-1.0074-2.25-2.25v-7.55c0-.11046.08954-.2.2-.2z" fill-rule="evenodd"/></g></svg>

<svg width="24" height="24" viewBox="0 0 24 24" fill="none" xmlns="http://www.w3.org/2000/svg">
<path d="M8 6.50003C8 7.05232 7.55229 7.5 7 7.5C6.44771 7.5 6 7.05232 6 6.50003C6 5.94774 6.44771 5.5 7 5.5C7.55229 5.5 8 5.94774 8 6.50003Z" fill="#33373D"/>
<path d="M12.8458 10.7685C13.2497 10.8601 13.503 11.2618 13.4114 11.6658L12.0514 17.6658C11.9599 18.0697 11.5582 18.323 11.1542 18.2314C10.7502 18.1399 10.497 17.7382 10.5886 17.3342L11.9485 11.3342C12.0401 10.9302 12.4418 10.677 12.8458 10.7685Z" fill="#33373D"/>
<path d="M9.53033 13.0303C9.82322 12.7374 9.82322 12.2626 9.53033 11.9697C9.23744 11.6768 8.76256 11.6768 8.46967 11.9697L6.46967 13.9697C6.17678 14.2626 6.17678 14.7374 6.46967 15.0303L8.46967 17.0303C8.76256 17.3232 9.23744 17.3232 9.53033 17.0303C9.82322 16.7374 9.82322 16.2626 9.53033 15.9697L8.06066 14.5L9.53033 13.0303Z" fill="#33373D"/>
<path d="M14.4697 13.0303C14.1768 12.7374 14.1768 12.2626 14.4697 11.9697C14.7626 11.6768 15.2374 11.6768 15.5303 11.9697L17.5303 13.9697C17.8232 14.2626 17.8232 14.7374 17.5303 15.0303L15.5303 17.0303C15.2374 17.3232 14.7626 17.3232 14.4697 17.0303C14.1768 16.7374 14.1768 16.2626 14.4697 15.9697L15.9393 14.5L14.4697 13.0303Z" fill="#33373D"/>
<path fill-rule="evenodd" clip-rule="evenodd" d="M6.5 2.75C4.42893 2.75 2.75 4.42893 2.75 6.5V17.5C2.75 19.5711 4.42893 21.25 6.5 21.25H17.5C19.5711 21.25 21.25 19.5711 21.25 17.5V6.5C21.25 4.42893 19.5711 2.75 17.5 2.75H6.5ZM4.25 6.5C4.25 5.25736 5.25736 4.25 6.5 4.25H17.5C18.7426 4.25 19.75 5.25736 19.75 6.5V8.05C19.75 8.16046 19.6605 8.25 19.55 8.25H4.45C4.33954 8.25 4.25 8.16046 4.25 8.05V6.5ZM19.55 9.75C19.6605 9.75 19.75 9.83954 19.75 9.95V17.5C19.75 18.7426 18.7426 19.75 17.5 19.75H6.5C5.25736 19.75 4.25 18.7426 4.25 17.5V9.95C4.25 9.83954 4.33954 9.75 4.45 9.75H19.55Z" fill="#33373D"/>
</svg>
